X:224
T: Xiashui bannao haozi
N: C1713D
O: China,Sichuan, Chongqing
S: Hanzu minge gailun, 82]
R: Haozi, Chuanjiang chuanfu haozi]
M: 2/4
L: 1/32
K: A
B4(3A2B2A2F8F8
c6BAF8
f3ecefef8 | (3e2c2e2c4F8
f3ec4ecB6 | c4B2A2F8 |
B4F4e3cB4 | c3BA4F8 |
f2e2c4eBc2BAB2 | c3BA4F8 |
B16 | F16 | F16 | z16

@@@ Tune index: 6779
